X: 42039
T: Waltz For Kylin
R: waltz
M: 3/4
K: Dmajor
|:(F>E)|D3 (F A>B)|A4 (d>e)|f>e d>f e>d|B4 (B>c)|d>B A>F A>B|A2 (F3 D)|G2 F2 D2|E4E (F/ E/|
D3) (F A>B)|A4 (d>e)|f>e d>f e>d|B4 (B>c)|d>B A>F A>B|E4 D2|B,<DD4|D2:|
|:(d>e)|f>e d>f e>d|B4 (AB/c/)|d2 (d>e) f>g|e4 (d>e)|f>e d>f e>d|B3 (g f>g)|f3 (g f>g)|e4 (d>c)|
d2 (D>F) d>B|A4 (d>e)|f>e d>fe>d|B4B>c|d>B A>F A>B|E4 D2|B,>DD4|D4:|

